icons/svgs/ticket-alt-solid.svg

<svg width="24" height="24" viewBox="0 0 24 24" fill="none" xmlns="http://www.w3.org/2000/svg">
<path d="M1.57135 12.9287L12.5708 1.92921C13.4301 1.06988 14.8898 1.10548 15.7921 2.00778L17.442 3.6577C17.674 3.88972 17.658 4.26659 17.5389 4.54035C17.2529 5.18731 17.372 5.94474 17.9134 6.48612C18.4548 7.0275 19.238 7.17236 19.8849 6.88633C20.1587 6.76725 20.5356 6.75129 20.7418 6.95753L22.3917 8.60744C23.3198 9.53552 23.3296 10.9694 22.4703 11.8287L11.4708 22.8281C10.587 23.712 9.17766 23.6777 8.24958 22.7496L6.59966 21.0997C6.39342 20.8934 6.38483 20.5411 6.50391 20.2673C6.78994 19.6204 6.66964 18.8126 6.12826 18.2712C5.58688 17.7299 4.80489 17.6353 4.15794 17.9214C3.88418 18.0404 3.53185 18.0319 3.29983 17.7998L1.64992 16.1499C0.747618 15.2476 0.687465 13.8125 1.57135 12.9287ZM6.03005 14.2447C5.82381 14.0384 5.78944 13.6603 6.01041 13.4393L13.0815 6.36827C13.2779 6.17185 13.6806 6.18167 13.8868 6.38791L18.0116 10.5127C18.2436 10.7447 18.2276 11.1216 18.0312 11.318L10.9602 18.3891C10.7392 18.6101 10.3869 18.6015 10.1548 18.3694L6.03005 14.2447ZM4.8319 14.6179L9.78164 19.5676C10.2457 20.0316 10.9503 20.0488 11.3923 19.6069L19.249 11.7501C19.6664 11.3328 19.6738 10.6035 19.2097 10.1395L14.26 5.18976C13.8217 4.7515 13.0667 4.73309 12.6494 5.15048L4.79261 13.0072C4.35067 13.4492 4.39364 14.1796 4.8319 14.6179Z" fill="black"/>
</svg>

<svg xmlns="http://www.w3.org/2000/svg" width="24" height="24" fill="currentColor" class="icon-ticket-alt-solid" viewBox="0 0 24 24">
  <mask id="a" width="24" height="23" x="0" y="1" maskUnits="userSpaceOnUse" style="mask-type:alpha">
    <path d="m1.571 12.929 11-11c.86-.86 2.319-.824 3.221.079l1.65 1.65c.232.232.216.609.097.882a1.73 1.73 0 0 0 .374 1.946c.542.542 1.325.686 1.972.4.274-.119.65-.135.857.072l1.65 1.65c.928.928.938 2.361.078 3.22l-11 11c-.883.884-2.292.85-3.22-.078L6.6 21.1c-.207-.207-.215-.559-.096-.833a1.81 1.81 0 0 0-.376-1.996c-.541-.541-1.323-.636-1.97-.35-.274.12-.626.11-.858-.121l-1.65-1.65c-.902-.902-.963-2.337-.079-3.221m4.46 1.316c-.207-.207-.242-.585-.02-.806l7.07-7.07c.197-.197.6-.187.806.019l4.125 4.125c.232.232.216.609.02.805l-7.072 7.071c-.22.221-.573.213-.805-.02zm-1.2.373 4.95 4.95c.465.464 1.17.48 1.611.039l7.857-7.857c.417-.417.425-1.146-.04-1.61L14.26 5.19c-.438-.439-1.193-.457-1.61-.04l-7.857 7.857c-.442.442-.4 1.173.039 1.61"/>
  </mask>
  <g mask="url(#a)">
    <path d="M0 0h24v24H0z"/>
  </g>
</svg>
